X: 4
T: Cat Rambles To The Child's Saucepan, The
Z: AdamM
S: https://thesession.org/tunes/365#setting48284
R: slide
M: 12/8
L: 1/8
K: Dmaj
A|:d2 ef2 a baf a2 f|e2 A cBA e2A cBA|
d2 ef2 a baf a2 f|e2 A cBA d3 d2 A:|
|:d2 ef2 e dcd ~B3|g2 e cBA e2 A cBA|
d2 ef2 e dcd ~B3|g2 e cBA d3 d2 A:|

